X: 30633
T: Ongo Bucharesti
R: reel
M: 4/4
K: Dmajor
|:"D"a3f gfed|faaf gfed|"A7"cdef geag|1 fgaf gfed:|2 (3faf (3efe "D"defg||
|:"D"a3f gfed|faaf gfed|"A7"cdef geag|1 fgaf gfed:|2 (3faf (3efe "D"d2ed||
|:"A7"cdef geag|"D"fAdf gfed|"A7"cdef geag|"D"feed "(Db/F)"=f2"(D/F#)"^f2|
"A7"ABcd efge|"D"fAdf efge|"A"a2a^g a=gfe|1 "A7"cdef gfed:|2 "A7" fdec d2"F#7"_B2||
|:"Bm"[F4B4][F4B4]|[F4d4][F4d4]|[F4B4f4] [F2B2f2][F2d2]|[F2B2]BA B2|
Bdfb ^abaf|^abfd e/f/e dB|a^ggf =f2^fd|=fg ^f3 e d/e/f|
"D"a8|a8|a4a4|a4a4|
fadf~e2d2|fadf~e2d2|"F#7"feed dccB|cd "Bm"(B2B4):|

